X: 879
T: Clark's Hornpipe   #2
R: hornpipe
%S: s:2 b:11(6+5)
B: Francis O'Neill: "The Dance Music of Ireland" (1907) #879
Z: Frank Nordberg - http://www.musicaviva.com
F: http://www.musicaviva.com/abc/tunes/ireland/oneill-1001/0879/oneill-1001-0879-1.abc
N: Compacted via repeats and multiple endings [JC]
N: Compacted by using labels and play order [JC]
P: Play (A1A2)x2 + (BA2)x2
M: 2/4
L: 1/16
K: D
(3(ABc) "^A"|: d2AG FDFA | BGBd [1,3 cBce | fdge afed | c2e2 egfe :|[2,4 cAce | dbag fgec |
| d2f2"^fine"d2 "^B":: (3(efg) | a2fd Adfa | g2ec Aceg | fafd Bged | cedB Agf"^->A2"e |]
